!!!!SEGMENT: pl-kk--kk-i-478--005_vogel--missa-agnus-dei.krn
!!!cenid: 17xx:1896
!!!COM: Vogel
!!!COM-rismid: pe30003636
!!!CDT:
!!!CNT:
!!!OPR: Missa
!!!OTL: Agnus Dei
!!!OMV: 005
!!!PDT:
!!!AGN: Sacred; Mass
!!!SMS-siglum: PL-Kk
!!!SMS-shelfmark: Kk.I.478
!!!SMS-shelfwork: 001-005 M
!!!SMS-variant: vl 1 PL-Kk I 478 0026; vl 2 tamże 0042; org tamże 0074
!!!SMS-altvar: vl 1 PL-Kk I 478 0034; vl 2 tamże 0050; org tamże 0080
!!!NIFC-rismid: 1001140255
!!!URL-scan: http://repozytorium.nifc.pl/skany/pl-kk-nut--i-478
!!!ONB-nifc: UWAGA: części Mszy: 1. Kyrie, 2. Gloria, 3. Credo, 4. Sanctus, 5. Agnus Dei, 6. Dona nobis
**kern	**fba	**kern	**dynam	**kern	**dynam	**kern	**dynam	**kern	**text	**kern	**text	**kern	**text	**kern	**text	**kern	**kern	**kern	**kern
*part12	*	*part11	*part11	*part10	*part10	*part9	*part9	*part8	*part8	*part7	*part7	*part6	*part6	*part5	*part5	*part4	*part3	*part2	*part1
*group	*group	*group4	*group4	*group4	*group4	*group4	*group4	*group3	*group3	*group3	*group3	*group3	*group3	*group3	*group3	*group2	*group2	*group1	*group1
*staff12	*	*staff11	*	*staff10	*	*staff9	*	*staff8	*staff8	*staff7	*staff7	*staff6	*staff6	*staff5	*staff5	*staff4	*staff3	*staff2	*staff1
*Iorgan	*	*Iviola	*	*Ivioln	*	*Ivioln	*	*Iempty	*	*Itenor	*	*Ialto	*	*Ivox	*	*Icor	*Icor	*Ioboe	*Ioboe
*I"Organo.	*	*I"Viola.	*	*I"Violino Secondo.	*	*I"Violino Primo	*	*I"Baſso.	*	*I"Tenore.	*	*I"Alto	*	*I"Canto	*	*I"Corno Secondo.	*I"Corno Primo	*I"Oboe Secondo.	*I"Oboe Primo.
*I'org	*	*I'vla	*	*I'vl 2	*	*I'vl 1	*	*I'B	*	*I'T	*	*I'A	*	*I'S	*	*I'cor 2	*I'cor 1	*I'ob 2	*I'ob 1
*clefF4	*	*clefC3	*	*clefG2	*	*clefG2	*	*clefF4	*	*clefC4	*	*clefC3	*	*clefC1	*	*clefG2	*clefG2	*clefG2	*clefG2
*	*	*	*	*	*	*	*	*	*	*	*	*	*	*	*	*ITrd6c10	*ITrd6c10	*	*
*k[f#c#]	*	*k[f#c#]	*	*k[f#c#]	*	*k[f#c#]	*	*k[f#c#]	*	*k[f#c#]	*	*k[f#c#]	*	*k[f#c#]	*	*k[f#c#]	*k[f#c#]	*k[f#c#]	*k[f#c#]
*b:	*	*b:	*	*b:	*	*b:	*	*b:	*	*b:	*	*b:	*	*b:	*	*b:	*b:	*b:	*b:
*M3/4	*	*M3/4	*	*M3/4	*	*M3/4	*	*M3/4	*	*M3/4	*	*M3/4	*	*M3/4	*	*M3/4	*M3/4	*M3/4	*M3/4
=1	=1	=1	=1	=1	=1	=1	=1	=1	=1	=1	=1	=1	=1	=1	=1	=1	=1	=1	=1
*2\right	*	*2\right	*	*2\right	*	*2\right	*	*2\right	*	*2\right	*	*2\right	*	*2\right	*	*2\right	*2\right	*2\right	*2\right
!LO:TX:i:a:t=Solo	!	!LO:TX:t=P:problem:inicjał w źródle przed kluczem na pięciolinii	!	!	!	!	!	!	!	!	!	!	!	!LO:TX:t=P:problem:inicjał w źródle przed kluczem na pięciolinii	!	!LO:TX:t=P:problem:inicjał w źródle przed kluczem na pięciolinii	!LO:TX:t=P:problem:inicjał w źródle przed kluczem na pięciolinii	!LO:TX:t=P:problem:inicjał w źródle przed kluczem na pięciolinii	!LO:TX:t=P:problem:inicjał w źródle przed kluczem na pięciolinii
!LO:TX:t=P:problem:4\, 8\left or middle:global	!	!LO:TX:t=P:problem:4\, 8\, 16\left or middle:global	!	!LO:TX:t=P:problem:inicjał w źródle przed kluczem na pięciolinii	!	!LO:TX:t=P:problem:inicjał w źródle przed kluczem na pięciolinii	!	!LO:TX:t=P:problem:inicjał w źródle przed kluczem na pięciolinii	!	!LO:TX:t=P:problem:inicjał w źródle przed kluczem na pięciolinii	!	!LO:TX:t=P:problem:inicjał w źródle przed kluczem na pięciolinii	!	!	!	!	!	!LO:TX:t=P:problem:32\left:global	!
!LO:TX:t=P:problem:inicjał w źródle przed kluczem na pięciolinii	!	!	!	!LO:TX:t=P:problem:4\, 8\, 16\left or middle:global	!	!LO:TX:t=P:problem:4\, 8\, 16\left or middle:global	!	!	!	!LO:TX:i:a:t=ada[gi]o	!	!	!	!LO:TX:i:a:t=ada[gi]o	!	!LO:TX:t=P:problem:4\left or middle:global	!LO:TX:t=P:problem:4\left or middle:global	!LO:TX:t=P:problem:4\, 8\left or middle:global	!LO:TX:t=P:problem:4\left or middle:global
!LO:TX:i:a:t=ada[gi]o	!	!LO:TX:a:i:t=ada[gi]o	!	!	!	!	!	!LO:TX:t=P:problem:4\left or middle:global	!	!LO:TX:t=P:problem:4\left or middle:global	!	!LO:TX:a:i:t=ada[gi]o	!	!LO:TX:t=P:problem:4\left or middle:global	!	!	!LO:TX:i:a:t=ada[gi]o	!LO:TX:i:a:t=ada[gi]o	!LO:TX:i:a:t=ada[gi]o
!LO:TX:i:b:t=Agnus:rj	!	!LO:TX:i:b:t=Agnus:rj	!	!LO:TX:i:b:t=Agnus:rj	!	!LO:TX:i:b:t=Agnus:rj	!	!	!	!	!	!	!	!LO:TX:t=P:problem:znaki przykluczowe: cc#, f#	!	!LO:TX:i:b:t=Agnus:rj	!LO:TX:b:i:t=Agnus:rj	!LO:TX:i:b:t=Agnus:rj	!LO:TX:i:b:t=Agnus:rj
!	!	!	!	!	!	!	!	!LO:N:vis=00	!	!LO:N:vis=00	!	!LO:N:vis=00	!	!LO:N:vis=00	!	!	!	!	!
4BB/	.	4F#/	.	4d/	.	4b\	.	0.r	.	0.r	.	0.r	.	0.r	.	4d\	4f#\	4b\	4dd\
4BB/	.	4F#/	.	4d/	.	4b\	.	.	.	.	.	.	.	.	.	4d\	4f#\	4b\	4dd\
4BB/	.	4F#/	.	4d/	.	4b\	.	.	.	.	.	.	.	.	.	4d\	4f#\	4b\	4dd\
=2	=2	=2	=2	=2	=2	=2	=2	=2	=2	=2	=2	=2	=2	=2	=2	=2	=2	=2	=2
4BB/	.	4F#/	.	4d/	.	16b\LL	.	.	.	.	.	.	.	.	.	4d\	4f#\	4b\	4dd\
.	.	.	.	.	.	(>16dd\	.	.	.	.	.	.	.	.	.	.	.	.	.
.	.	.	.	.	.	16cc#\	.	.	.	.	.	.	.	.	.	.	.	.	.
.	.	.	.	.	.	16b\JJ)	.	.	.	.	.	.	.	.	.	.	.	.	.
4r	.	4r	.	4r	.	16ff#\LL	.	.	.	.	.	.	.	.	.	4r	4r	4r	4r
.	.	.	.	.	.	(>16dd\	.	.	.	.	.	.	.	.	.	.	.	.	.
.	.	.	.	.	.	16cc#\	.	.	.	.	.	.	.	.	.	.	.	.	.
.	.	.	.	.	.	16b\JJ)	.	.	.	.	.	.	.	.	.	.	.	.	.
4r	.	4r	.	4r	.	16bb\LL	.	.	.	.	.	.	.	.	.	4r	4r	4r	4r
.	.	.	.	.	.	16dd\	.	.	.	.	.	.	.	.	.	.	.	.	.
.	.	.	.	.	.	16cc#\	.	.	.	.	.	.	.	.	.	.	.	.	.
.	.	.	.	.	.	16b\JJ	.	.	.	.	.	.	.	.	.	.	.	.	.
=3	=3	=3	=3	=3	=3	=3	=3	=3	=3	=3	=3	=3	=3	=3	=3	=3	=3	=3	=3
*tremolo	*	*	*	*	*	*	*	*	*	*	*	*	*	*	*	*	*	*	*
*	*	*tremolo	*	*	*	*	*	*	*	*	*	*	*	*	*	*	*	*	*
*	*	*	*	*tremolo	*	*	*	*	*	*	*	*	*	*	*	*	*	*	*
!	!	!	!	!	!	!	!	!	!	!	!	!	!	!	!	!LO:N:vis=0	!LO:N:vis=0	!LO:N:vis=0	!LO:N:vis=0
8C#/L	.	8F#/L	.	8e/L	.	8.b\L	.	.	.	.	.	.	.	.	.	1.r	1.r	1.r	1.r
8C#/	.	8F#/	.	8e/	.	.	.	.	.	.	.	.	.	.	.	.	.	.	.
.	.	.	.	.	.	16a#X\Jk	.	.	.	.	.	.	.	.	.	.	.	.	.
8C#/	.	8F#/	.	8e/	.	4.a#\	.	.	.	.	.	.	.	.	.	.	.	.	.
8C#/J	.	8F#/	.	8e/J	.	.	.	.	.	.	.	.	.	.	.	.	.	.	.
*Xtremolo	*	*	*	*Xtremolo	*	*	*	*	*	*	*	*	*	*	*	*	*	*	*
8BB/L	.	8F#/	.	8d/L	.	.	.	.	.	.	.	.	.	.	.	.	.	.	.
8BB/J	.	8F#/J	.	8d/J	.	8b\	.	.	.	.	.	.	.	.	.	.	.	.	.
=4	=4	=4	=4	=4	=4	=4	=4	=4	=4	=4	=4	=4	=4	=4	=4	=4	=4	=4	=4
*tremolo	*	*	*	*tremolo	*	*	*	*	*	*	*	*	*	*	*	*	*	*	*
8AA#X/L	.	8E/L	.	8f#/L	.	8b#X\L	.	.	.	.	.	.	.	.	.	.	.	.	.
8AA#X/	.	8E/	.	8f#/	.	8cc#\J	.	.	.	.	.	.	.	.	.	.	.	.	.
8AA#X/	.	8E/	.	8f#/	.	4cc#\	.	.	.	.	.	.	.	.	.	.	.	.	.
8AA#X/J	.	8E/J	.	8f#/	.	.	.	.	.	.	.	.	.	.	.	.	.	.	.
*Xtremolo	*	*Xtremolo	*	*	*	*	*	*	*	*	*	*	*	*	*	*	*	*	*
8BB/L	.	8D/L	.	8f#/	.	8dd\L	.	.	.	.	.	.	.	.	.	.	.	.	.
8BB/J	.	8D/J	.	8f#/J	.	16cc#\L	.	.	.	.	.	.	.	.	.	.	.	.	.
.	.	.	.	.	.	16b#\JJ	.	.	.	.	.	.	.	.	.	.	.	.	.
*	*	*	*	*Xtremolo	*	*	*	*	*	*	*	*	*	*	*	*	*	*	*
=5	=5	=5	=5	=5	=5	=5	=5	=5	=5	=5	=5	=5	=5	=5	=5	=5	=5	=5	=5
!	!	!	!	!	!	!	!	!LO:N:vis=0	!	!LO:N:vis=0	!	!LO:N:vis=0	!	!LO:N:vis=0	!	!	!	!	!
8E\	.	8F#/	.	8c#/	.	16a#X/LL	.	1.r	.	1.r	.	1.r	.	1.r	.	2.F#/	2.f#\	4a#X\	2.ff#\
.	.	.	.	.	.	(<16f#/	.	.	.	.	.	.	.	.	.	.	.	.	.
8r	.	8r	.	8r	.	16e#X/	.	.	.	.	.	.	.	.	.	.	.	.	.
.	.	.	.	.	.	16f#/JJ)	.	.	.	.	.	.	.	.	.	.	.	.	.
8D\	.	8F#/	.	8B/	.	16b/LL	.	.	.	.	.	.	.	.	.	.	.	4b\	.
.	.	.	.	.	.	(<16f#/	.	.	.	.	.	.	.	.	.	.	.	.	.
8r	.	8r	.	8r	.	16e#X/	.	.	.	.	.	.	.	.	.	.	.	.	.
.	.	.	.	.	.	16f#/JJ)	.	.	.	.	.	.	.	.	.	.	.	.	.
8AA#X/	.	8D/	.	8a#X/	.	16cc#/LL	.	.	.	.	.	.	.	.	.	.	.	4cc#\	.
.	.	.	.	.	.	(<16f#/	.	.	.	.	.	.	.	.	.	.	.	.	.
8r	.	8r	.	8r	.	16e#/	.	.	.	.	.	.	.	.	.	.	.	.	.
.	.	.	.	.	.	16f#/JJ)	.	.	.	.	.	.	.	.	.	.	.	.	.
=6	=6	=6	=6	=6	=6	=6	=6	=6	=6	=6	=6	=6	=6	=6	=6	=6	=6	=6	=6
4BB/	.	4D/	.	8b/L	.	8.ddT>\L	.	.	.	.	.	.	.	.	.	4d\	4f#\	8.b\L	8.dd\L
!	!	!	!	!LO:SIC:v:s=16a#	!	!	!	!	!	!	!	!	!	!	!	!	!	!	!
.	.	.	.	16a/L	.	.	.	.	.	.	.	.	.	.	.	.	.	.	.
!	!	!	!	!	!	!	!	!	!	!	!	!	!	!	!	!	!	!LO:SIC:v:s=32a#	!
.	.	.	.	16b/JJ	.	32cc#\LL	.	.	.	.	.	.	.	.	.	.	.	32a\LL	32cc#\LL
.	.	.	.	.	.	32dd\JJJ	.	.	.	.	.	.	.	.	.	.	.	32b\JJJ	32dd\JJJ
!	!	!	!	!	!	!LO:LB:g=original	!	!	!	!	!	!	!	!	!	!	!	!	!
!	!	!	!	!LO:SIC:v:s=4a#	!	!	!	!	!	!	!	!	!	!	!	!	!	!LO:SIC:v:s=4a#	!
4F#\	.	4F#/	.	4a/	.	4cc#\	.	.	.	.	.	.	.	.	.	4F#/	4f#\	4a\	4cc#\
4r	.	4r	.	4r	.	4r	.	.	.	.	.	.	.	.	.	4r	4r	4r	4r
=7	=7	=7	=7	=7	=7	=7	=7	=7	=7	=7	=7	=7	=7	=7	=7	=7	=7	=7	=7
!	!	!	!	!	!	!	!LO:DY:b	!	!	!	!	!	!	!	!	!	!	!	!
4BB/	.	4F#/	.	16r	.	16r	p	2.BB/	A-	2.B\	A-	2.d\	A-	2.f#/	A-	2.d\	2.f#\	2.b\	2.dd\
.	.	.	.	16d/LL	.	16b\LL|	.	.	.	.	.	.	.	.	.	.	.	.	.
.	.	.	.	16c#/	.	(>16a#X\	.	.	.	.	.	.	.	.	.	.	.	.	.
.	.	.	.	16d/JJ	.	16b\JJ)	.	.	.	.	.	.	.	.	.	.	.	.	.
4BB/	.	4F#/	.	16r	.	16r	.	.	.	.	.	.	.	.	.	.	.	.	.
.	.	.	.	16d/LL	.	16b\LL|	.	.	.	.	.	.	.	.	.	.	.	.	.
.	.	.	.	16c#/	.	(>16a#X\	.	.	.	.	.	.	.	.	.	.	.	.	.
.	.	.	.	16d/JJ	.	16b\JJ)	.	.	.	.	.	.	.	.	.	.	.	.	.
!	!	!	!	!LO:LB:g=original	!	!	!	!	!	!	!	!	!	!	!	!	!	!	!
4BB/	.	4F#/	.	16r	.	16r	.	.	.	.	.	.	.	.	.	.	.	.	.
.	.	.	.	16d/LL	.	16b\LL|	.	.	.	.	.	.	.	.	.	.	.	.	.
.	.	.	.	16c#/	.	(>16a#\	.	.	.	.	.	.	.	.	.	.	.	.	.
.	.	.	.	16d/JJ	.	16b\JJ)	.	.	.	.	.	.	.	.	.	.	.	.	.
=8	=8	=8	=8	=8	=8	=8	=8	=8	=8	=8	=8	=8	=8	=8	=8	=8	=8	=8	=8
4BB/	.	4F#/	.	4d/	.	16b\LL|	.	4BB/	-gnus	4B\	-gnus	4d\	-gnus	4f#/	-gnus	4d\	4f#\	4b\	4dd\
.	.	.	.	.	.	(>16dd\	.	.	.	.	.	.	.	.	.	.	.	.	.
.	.	.	.	.	.	16cc#\	.	.	.	.	.	.	.	.	.	.	.	.	.
.	.	.	.	.	.	16b\JJ)	.	.	.	.	.	.	.	.	.	.	.	.	.
4r	.	4r	.	4r	.	16ff#\LL|	.	4r	.	4r	.	4r	.	4r	.	4r	4f#\	4r	4r
.	.	.	.	.	.	(>16dd\	.	.	.	.	.	.	.	.	.	.	.	.	.
.	.	.	.	.	.	16cc#\	.	.	.	.	.	.	.	.	.	.	.	.	.
.	.	.	.	.	.	16b\JJ)	.	.	.	.	.	.	.	.	.	.	.	.	.
4r	.	4r	.	4r	.	16bb\LL|	.	4r	.	4r	.	4r	.	4r	.	4r	4r	4r	4r
.	.	.	.	.	.	(>16dd\	.	.	.	.	.	.	.	.	.	.	.	.	.
.	.	.	.	.	.	16cc#\	.	.	.	.	.	.	.	.	.	.	.	.	.
.	.	.	.	.	.	16b\JJ)	.	.	.	.	.	.	.	.	.	.	.	.	.
!LO:LB:g=original	!	!LO:LB:g=original	!	!	!	!	!	!	!	!	!	!	!	!	!	!	!	!	!
=9	=9	=9	=9	=9	=9	=9	=9	=9	=9	=9	=9	=9	=9	=9	=9	=9	=9	=9	=9
4BB/	6 4	16r	.	16r	.	4b\	.	2.BB/	De-	2.e\	De-	2.g\	De-	2.b\	De-	2.e\	2.g\	2.g/	2.ee\
.	.	16e\LL	.	16g/LL	.	.	.	.	.	.	.	.	.	.	.	.	.	.	.
.	.	16d#X\	.	16f#/	.	.	.	.	.	.	.	.	.	.	.	.	.	.	.
.	.	16e\JJ	.	16g/JJ	.	.	.	.	.	.	.	.	.	.	.	.	.	.	.
4BB/	.	16r	.	16r	.	4b\	.	.	.	.	.	.	.	.	.	.	.	.	.
.	.	16e\LL	.	16g/LL	.	.	.	.	.	.	.	.	.	.	.	.	.	.	.
.	.	16d#\	.	16f#/	.	.	.	.	.	.	.	.	.	.	.	.	.	.	.
.	.	16e\JJ	.	16g/JJ	.	.	.	.	.	.	.	.	.	.	.	.	.	.	.
4BB/	.	16r	.	16r	.	4b\	.	.	.	.	.	.	.	.	.	.	.	.	.
.	.	16e\LL	.	16g/LL	.	.	.	.	.	.	.	.	.	.	.	.	.	.	.
.	.	16d#\	.	16f#/	.	.	.	.	.	.	.	.	.	.	.	.	.	.	.
.	.	16e\JJ	.	16g/JJ	.	.	.	.	.	.	.	.	.	.	.	.	.	.	.
=10	=10	=10	=10	=10	=10	=10	=10	=10	=10	=10	=10	=10	=10	=10	=10	=10	=10	=10	=10
4BB/	.	4e\	.	4g/	.	16b\LL|	.	4BB/	-i	4e\	-i	4g\	-i	4b\	-i	4e\	4g\	4g/	4ee\
.	.	.	.	.	.	(>16gg\	.	.	.	.	.	.	.	.	.	.	.	.	.
.	.	.	.	.	.	16ff#\	.	.	.	.	.	.	.	.	.	.	.	.	.
.	.	.	.	.	.	16ee\JJ)	.	.	.	.	.	.	.	.	.	.	.	.	.
4r	.	4r	.	4r	.	16bb\LL|	.	4r	.	4r	.	4r	.	4r	.	4r	4r	4r	4r
.	.	.	.	.	.	(>16gg\	.	.	.	.	.	.	.	.	.	.	.	.	.
.	.	.	.	.	.	16ff#\	.	.	.	.	.	.	.	.	.	.	.	.	.
.	.	.	.	.	.	16ee\JJ)	.	.	.	.	.	.	.	.	.	.	.	.	.
4r	.	4r	.	4r	.	16b\LL|	.	4r	.	4r	.	4r	.	4r	.	4r	4r	4r	4r
.	.	.	.	.	.	(>16gg\	.	.	.	.	.	.	.	.	.	.	.	.	.
.	.	.	.	.	.	16ff#\	.	.	.	.	.	.	.	.	.	.	.	.	.
.	.	.	.	.	.	16ee\JJ)	.	.	.	.	.	.	.	.	.	.	.	.	.
=11	=11	=11	=11	=11	=11	=11	=11	=11	=11	=11	=11	=11	=11	=11	=11	=11	=11	=11	=11
4BB/	4 2	16r	.	16r	.	4aa#X\	.	4BB/	qui	4c#\	qui	4e\	qui	4a#X\	qui	2.r	2.r	4ee\	4aa#X\
.	.	16c#/LL	.	16ee\LL|	.	.	.	.	.	.	.	.	.	.	.	.	.	.	.
.	.	16B/	.	(>16dd#X\	.	.	.	.	.	.	.	.	.	.	.	.	.	.	.
.	.	16c#/JJ	.	16ee\JJ)	.	.	.	.	.	.	.	.	.	.	.	.	.	.	.
4BB/	.	16r	.	16r	.	4aa#\	.	2BB/	tol-	2c#\	tol-	2e\	tol-	2a#\	tol-	.	.	4ee\	4aa#\
.	.	16c#/LL	.	16ee\LL|	.	.	.	.	.	.	.	.	.	.	.	.	.	.	.
.	.	16B/	.	(>16dd#\	.	.	.	.	.	.	.	.	.	.	.	.	.	.	.
.	.	16c#/JJ	.	16ee\JJ)	.	.	.	.	.	.	.	.	.	.	.	.	.	.	.
4BB/	.	16r	.	16r	.	4aa#\	.	.	.	.	.	.	.	.	.	.	.	4ee\	4aa#\
.	.	16c#/LL	.	16ee\LL|	.	.	.	.	.	.	.	.	.	.	.	.	.	.	.
.	.	16B/	.	(>16dd#\	.	.	.	.	.	.	.	.	.	.	.	.	.	.	.
.	.	16c#/JJ	.	16ee\JJ)	.	.	.	.	.	.	.	.	.	.	.	.	.	.	.
=12	=12	=12	=12	=12	=12	=12	=12	=12	=12	=12	=12	=12	=12	=12	=12	=12	=12	=12	=12
4BB/	6 3	4F#/	.	4ddn\	.	16bb\LL|	.	4BB/	-lis	4d\	-lis	4f#\	-lis	4b#X\	-lis	4F#/	4f#\	4dd\	4bb\
.	.	.	.	.	.	(>16ff#\	.	.	.	.	.	.	.	.	.	.	.	.	.
.	.	.	.	.	.	16ee\	.	.	.	.	.	.	.	.	.	.	.	.	.
.	.	.	.	.	.	16dd\JJ)	.	.	.	.	.	.	.	.	.	.	.	.	.
!	!	!	!	!	!	!LO:LB:g=original	!	!	!	!	!	!	!	!	!	!	!	!	!
4r	.	4r	.	4r	.	16ff#\LL|	.	4r	.	4r	.	4r	.	4r	.	4r	4r	4r	4r
.	.	.	.	.	.	(>16dd\	.	.	.	.	.	.	.	.	.	.	.	.	.
.	.	.	.	.	.	16cc#\	.	.	.	.	.	.	.	.	.	.	.	.	.
.	.	.	.	.	.	16b\JJ)	.	.	.	.	.	.	.	.	.	.	.	.	.
4r	.	4r	.	4r	.	16bb\LL|	.	4r	.	4r	.	4r	.	4r	.	4r	4r	4r	4r
.	.	.	.	.	.	(>16dd\	.	.	.	.	.	.	.	.	.	.	.	.	.
.	.	.	.	.	.	16cc#\	.	.	.	.	.	.	.	.	.	.	.	.	.
.	.	.	.	.	.	16b\JJ)	.	.	.	.	.	.	.	.	.	.	.	.	.
!	!	!	!	!	!	!	!	!LO:LB:g=original	!	!	!	!	!	!	!	!	!	!	!
=13	=13	=13	=13	=13	=13	=13	=13	=13	=13	=13	=13	=13	=13	=13	=13	=13	=13	=13	=13
*Xtremolo	*	*	*	*	*	*	*	*	*	*	*	*	*	*	*	*	*	*	*
8BB/L	.	8B\L	.	8.ddT>\L	.	8.ff#t>\L	.	4BB/	pec-	4B\	pec-	4f#\	pec-	4dd\	pec-	2.r	2.r	4dd\	4ff#\
8BB/J	.	8B\	.	.	.	.	.	.	.	.	.	.	.	.	.	.	.	.	.
.	.	.	.	32ee\LL	.	32gg\LL	.	.	.	.	.	.	.	.	.	.	.	.	.
.	.	.	.	32dd\JJJ	.	32ff#\JJJ	.	.	.	.	.	.	.	.	.	.	.	.	.
!	!	!	!	!LO:LB:g=original	!	!	!	!	!	!	!	!	!	!	!	!	!	!	!
8E\L	.	8e\	.	8.cc#t>\L	.	8.eeT>\L	.	4E\	-ca-	4c#\	-ca-	4g\	-ca-	4cc#\	-ca-	.	.	4cc#\	4ee\
8E\	.	8e\	.	.	.	.	.	.	.	.	.	.	.	.	.	.	.	.	.
.	.	.	.	32dd\LL	.	32ff#\LL	.	.	.	.	.	.	.	.	.	.	.	.	.
.	.	.	.	32cc#\JJJ	.	32ee\JJJ	.	.	.	.	.	.	.	.	.	.	.	.	.
8E#X\	.	8e#X\	.	8.bT>\L	.	8.ddT>\L	.	4E#X\	-ta	4d\	-ta	4g#X\	-ta	4b\	-ta	.	.	4b\	4dd\
8E#\J	.	8e#\J	.	.	.	.	.	.	.	.	.	.	.	.	.	.	.	.	.
.	.	.	.	32cc#\LL	.	32ee\LL	.	.	.	.	.	.	.	.	.	.	.	.	.
.	.	.	.	32b\JJJ	.	32dd\JJJ	.	.	.	.	.	.	.	.	.	.	.	.	.
!	!	!	!	!	!	!	!	!	!	!LO:LB:g=original	!	!	!	!	!	!	!	!LO:LB:g=original	!LO:LB:g=original
=14	=14	=14	=14	=14	=14	=14	=14	=14	=14	=14	=14	=14	=14	=14	=14	=14	=14	=14	=14
!	!	!	!	!	!	!	!	!	!	!	!	!LO:SIC:v:s=8g#	!	!	!	!	!	!	!
4F#\	.	4f#\	.	8.bT>\L	.	8.ddT>\L	.	4F#\	mun-	4d\	mun-	8g\L	mun-	8.b\L	mun-	4F#/	4f#\	8.b\L	8.dd\L
.	.	.	.	.	.	.	.	.	.	.	.	16f#\L	.	.	.	.	.	.	.
!	!	!	!	!	!	!	!	!	!	!	!	!LO:SIC:v:s=16g#	!	!	!	!	!	!	!
.	.	.	.	32a#X\LL	.	(>32cc#\LL	.	.	.	.	.	16g\JJ	.	32a#X\LL	.	.	.	32a#X\LL	32cc#\LL
.	.	.	.	32b\JJJ	.	32dd\JJJ	.	.	.	.	.	.	.	32b\JJJ	.	.	.	32b\JJJ	32dd\JJJ
!	!	!	!	!	!	!	!	!	!	!	!	!LO:LB:g=original	!	!	!	!	!	!	!
4F#\	.	4f#\	.	4a#/	.	4cc#\)	.	4F#\	-di	4f#\	-di	4f#\	-di	4a#\	-di	4F#/	4f#\	4a#\	4cc#\
4En\	.	4e\	.	4r	.	4r	.	4r	.	4r	.	4r	.	4r	.	4r	4r	4r	4r
!	!	!LO:LB:g=original	!	!	!	!	!	!	!	!	!	!	!	!LO:LB:g=original	!	!LO:LB:g=original	!	!	!
=15	=15	=15	=15	=15	=15	=15	=15	=15	=15	=15	=15	=15	=15	=15	=15	=15	=15	=15	=15
!	!	!	!	!	!	!	!	!	!	!	!	!	!	!LO:TX:i:a:t=Solo	!	!LO:N:vis=00	!LO:N:vis=00	!	!
4D#X\	.	4d#X\	.	8f#/	.	16r	.	2D#X\	a-	2A\	a-	2f#\	a-	2b\	A-	0.r	0.r	2.f#/	2.b\
.	.	.	.	.	.	16b\LL|	.	.	.	.	.	.	.	.	.	.	.	.	.
.	.	.	.	4f#/	.	(>16a#X\	.	.	.	.	.	.	.	.	.	.	.	.	.
.	.	.	.	.	.	16b\JJ)	.	.	.	.	.	.	.	.	.	.	.	.	.
4D#\	.	4d#\	.	.	.	16ff#\LL	.	.	.	.	.	.	.	.	.	.	.	.	.
.	.	.	.	.	.	(>16b\	.	.	.	.	.	.	.	.	.	.	.	.	.
.	.	.	.	4f#/	.	16a#\	.	.	.	.	.	.	.	.	.	.	.	.	.
.	.	.	.	.	.	16b\JJ)	.	.	.	.	.	.	.	.	.	.	.	.	.
4D#\	.	4d#\	.	.	.	(<16f#/LL	.	4D#\	-gnus	4A\	-gnus	4f#\	-gnus	4b\	-gnus	.	.	.	.
.	.	.	.	.	.	16b/)	.	.	.	.	.	.	.	.	.	.	.	.	.
.	.	.	.	8f#/	.	(<16a#/	.	.	.	.	.	.	.	.	.	.	.	.	.
.	.	.	.	.	.	16b/JJ)	.	.	.	.	.	.	.	.	.	.	.	.	.
=16	=16	=16	=16	=16	=16	=16	=16	=16	=16	=16	=16	=16	=16	=16	=16	=16	=16	=16	=16
4E\	.	4e\	.	8gn/	.	16r	.	4E\	De-	4G/	De-	4e\	De-	4b\	De-	.	.	2.g/	2.b\
.	.	.	.	.	.	16b\LL	.	.	.	.	.	.	.	.	.	.	.	.	.
.	.	.	.	4g/	.	16ee\	.	.	.	.	.	.	.	.	.	.	.	.	.
.	.	.	.	.	.	16ff#\JJ	.	.	.	.	.	.	.	.	.	.	.	.	.
4E\	.	4e\	.	.	.	16ggn\LL	.	4E\	-i	4G/	-i	4e\	-i	4b\	-i	.	.	.	.
.	.	.	.	.	.	16ff#\	.	.	.	.	.	.	.	.	.	.	.	.	.
.	.	.	.	4g/	.	16ee\	.	.	.	.	.	.	.	.	.	.	.	.	.
.	.	.	.	.	.	16dd#X\JJ	.	.	.	.	.	.	.	.	.	.	.	.	.
4E\	.	4e\	.	.	.	16ee\LL	.	4r	.	4r	.	4r	.	4r	.	.	.	.	.
.	.	.	.	.	.	16b\	.	.	.	.	.	.	.	.	.	.	.	.	.
.	.	.	.	8g/	.	16g\	.	.	.	.	.	.	.	.	.	.	.	.	.
.	.	.	.	.	.	16e\JJ	.	.	.	.	.	.	.	.	.	.	.	.	.
!	!	!	!	!	!	!LO:LB:g=original	!	!	!	!	!	!	!	!	!	!	!	!	!
=17	=17	=17	=17	=17	=17	=17	=17	=17	=17	=17	=17	=17	=17	=17	=17	=17	=17	=17	=17
4E#X\	.	4e#X\	.	8g#X/	.	16r	.	2.E#X\	qui	2.B\	qui	2.g#X\	qui	2.cc#\	Qui	.	.	2.g#X/	2.cc#\
.	.	.	.	.	.	16cc#\LL|	.	.	.	.	.	.	.	.	.	.	.	.	.
.	.	.	.	4g#/	.	(>16b#X\	.	.	.	.	.	.	.	.	.	.	.	.	.
.	.	.	.	.	.	16cc#\JJ)	.	.	.	.	.	.	.	.	.	.	.	.	.
4E#\	.	4e#\	.	.	.	16gg#X\LL|	.	.	.	.	.	.	.	.	.	.	.	.	.
.	.	.	.	.	.	(>16cc#\	.	.	.	.	.	.	.	.	.	.	.	.	.
.	.	.	.	4g#/	.	16b#\	.	.	.	.	.	.	.	.	.	.	.	.	.
.	.	.	.	.	.	16cc#\JJ)	.	.	.	.	.	.	.	.	.	.	.	.	.
4E#\	.	4e#\	.	.	.	16g#X\LL|	.	.	.	.	.	.	.	.	.	.	.	.	.
.	.	.	.	.	.	(>16cc#\	.	.	.	.	.	.	.	.	.	.	.	.	.
.	.	.	.	8g#/	.	16b#\	.	.	.	.	.	.	.	.	.	.	.	.	.
.	.	.	.	.	.	16cc#\JJ)	.	.	.	.	.	.	.	.	.	.	.	.	.
=18	=18	=18	=18	=18	=18	=18	=18	=18	=18	=18	=18	=18	=18	=18	=18	=18	=18	=18	=18
4F#\	.	4f#\	.	8a#X/	.	16r	.	4F#\	tol-	4A#X\	tol-	4f#\	tol-	4cc#\	tol-	.	.	2.a#X/	2.cc#\
.	.	.	.	.	.	16cc#\LL	.	.	.	.	.	.	.	.	.	.	.	.	.
.	.	.	.	4a#/	.	16ff#\	.	.	.	.	.	.	.	.	.	.	.	.	.
.	.	.	.	.	.	16gg#X\JJ	.	.	.	.	.	.	.	.	.	.	.	.	.
4F#\	.	4f#\	.	.	.	16aa#X\LL	.	4F#\	-lis	4A#\	-lis	4f#\	-lis	4cc#\	-lis	.	.	.	.
.	.	.	.	.	.	16gg#X\	.	.	.	.	.	.	.	.	.	.	.	.	.
.	.	.	.	4a#/	.	16ff#\	.	.	.	.	.	.	.	.	.	.	.	.	.
.	.	.	.	.	.	16ee#X\JJ	.	.	.	.	.	.	.	.	.	.	.	.	.
4F#\	.	4f#\	.	.	.	16ff#\LL|	.	4F#\	pec-	4A#\	pec-	4f#\	pec-	4cc#\	pec-	.	.	.	.
.	.	.	.	.	.	(>16cc#\	.	.	.	.	.	.	.	.	.	.	.	.	.
.	.	.	.	8a#/	.	16a#X\	.	.	.	.	.	.	.	.	.	.	.	.	.
.	.	.	.	.	.	16f#\JJ)	.	.	.	.	.	.	.	.	.	.	.	.	.
!LO:LB:g=original	!	!	!	!	!	!	!	!	!	!	!	!	!	!	!	!	!	!	!
=19	=19	=19	=19	=19	=19	=19	=19	=19	=19	=19	=19	=19	=19	=19	=19	=19	=19	=19	=19
*tremolo	*	*tremolo	*	*	*	*	*	*	*	*	*	*	*	*	*	*	*	*	*
!	!	!	!	!	!	!	!	!	!	!	!	!	!	!	!	!LO:N:vis=00	!LO:N:vis=00	!	!
8D\L	X 6	8d\L	.	16b\LL	.	8b\	.	2D\	-ca-	2B\	-ca-	2f#\	-ca-	2b\	-ca-	0.r	0.r	2.b\	2.b\
.	.	.	.	16dd\	.	.	.	.	.	.	.	.	.	.	.	.	.	.	.
8D\	.	8d\	.	16cc#\	.	4bb\	.	.	.	.	.	.	.	.	.	.	.	.	.
.	.	.	.	16b\JJ	.	.	.	.	.	.	.	.	.	.	.	.	.	.	.
8D\	.	8d\	.	16ff#\LL	.	.	.	.	.	.	.	.	.	.	.	.	.	.	.
.	.	.	.	16dd\	.	.	.	.	.	.	.	.	.	.	.	.	.	.	.
8D\	.	8d\	.	16cc#\	.	4bb\	.	.	.	.	.	.	.	.	.	.	.	.	.
.	.	.	.	16b\JJ	.	.	.	.	.	.	.	.	.	.	.	.	.	.	.
!	!	!	!	!LO:LB:g=original	!	!	!	!	!	!	!	!	!	!	!	!	!	!	!
8D\	.	8d\	.	16bb\LL	.	.	.	4D\	-ta	4f#\	-ta	4f#\	-ta	4b\	-ta	.	.	.	.
.	.	.	.	16dd\	.	.	.	.	.	.	.	.	.	.	.	.	.	.	.
8D\J	.	8d\J	.	16cc#\	.	8bb\	.	.	.	.	.	.	.	.	.	.	.	.	.
.	.	.	.	16b\JJ	.	.	.	.	.	.	.	.	.	.	.	.	.	.	.
=20	=20	=20	=20	=20	=20	=20	=20	=20	=20	=20	=20	=20	=20	=20	=20	=20	=20	=20	=20
*	*	*	*	*tremolo	*	*	*	*	*	*	*	*	*	*	*	*	*	*	*
8En\L	X 3	8en\L	.	8cc#\L	.	8bb\	.	2En\	mun-	2g\	mun-	2b\	mun-	2cc#\	mun-	.	.	2.b\	2.cc#\
8En\	.	8en\	.	8cc#\	.	4b\	.	.	.	.	.	.	.	.	.	.	.	.	.
8En\	.	8en\	.	8cc#\	.	.	.	.	.	.	.	.	.	.	.	.	.	.	.
8En\	.	8en\	.	8cc#\	.	4b\	.	.	.	.	.	.	.	.	.	.	.	.	.
8En\	.	8en\	.	8cc#\	.	.	.	4E\	-di	4G/	-di	4b\	-di	4cc#\	-di	.	.	.	.
8En\J	.	8en\J	.	8cc#\J	.	8b\	.	.	.	.	.	.	.	.	.	.	.	.	.
!	!	!	!	!	!	!	!	!LO:LB:g=original	!	!	!	!	!	!	!	!	!	!	!
=21	=21	=21	=21	=21	=21	=21	=21	=21	=21	=21	=21	=21	=21	=21	=21	=21	=21	=21	=21
!	!	!	!	!	!	!LO:TX:a:t=P:problem:takty 21-22 zapisane repetycją	!	!	!	!	!	!	!	!	!	!	!	!	!
8F#\L	6 4	8f#\L	.	8dd\L	.	8b\yy	.	2F#\	mi-	2A\	mi-	2f#\	mi-	2dd\	mi-	.	.	2.b\	2.dd\
8F#\	.	8f#\	.	8dd\	.	4bb\yy	.	.	.	.	.	.	.	.	.	.	.	.	.
8F#\	.	8f#\	.	8dd\	.	.	.	.	.	.	.	.	.	.	.	.	.	.	.
8F#\	.	8f#\	.	8dd\	.	4bb\yy	.	.	.	.	.	.	.	.	.	.	.	.	.
8F#\	.	8f#\	.	8dd\	.	.	.	4F#\	-se-	4A\	-se-	4f#\	-se-	4dd\	-se-	.	.	.	.
8F#\J	.	8f#\J	.	8dd\J	.	8bb\yy	.	.	.	.	.	.	.	.	.	.	.	.	.
*	*	*Xtremolo	*	*	*	*	*	*	*	*	*	*	*	*	*	*	*	*	*
!	!	!	!	!	!	!	!	!	!	!LO:LB:g=original	!	!	!	!	!	!	!	!	!
=22	=22	=22	=22	=22	=22	=22	=22	=22	=22	=22	=22	=22	=22	=22	=22	=22	=22	=22	=22
8G\L	.	4g\	.	8ee\L	.	8bb\yy	.	2G\	-re-	2G\	-re-	2b\	-re-	2ee\	-re-	.	.	2.b\	2ee\
8G\	.	.	.	8ee\	.	4b\yy	.	.	.	.	.	.	.	.	.	.	.	.	.
8G\	.	4g\	.	8ee\	.	.	.	.	.	.	.	.	.	.	.	.	.	.	.
8G\J	.	.	.	8ee\J	.	4b\yy	.	.	.	.	.	.	.	.	.	.	.	.	.
*Xtremolo	*	*	*	*Xtremolo	*	*	*	*	*	*	*	*	*	*	*	*	*	*	*
8F#\L	.	4f#\	.	8dd\L	.	.	.	4F#\	-re	4B\	-re	4f#\	-re	4dd\	-re	.	.	.	4dd\
8F#\J	.	.	.	8dd\J	.	8b\yy	.	.	.	.	.	.	.	.	.	.	.	.	.
!	!	!	!	!	!	!	!	!	!	!	!	!LO:LB:g=original	!	!	!	!	!	!	!
=23	=23	=23	=23	=23	=23	=23	=23	=23	=23	=23	=23	=23	=23	=23	=23	=23	=23	=23	=23
*tremolo	*	*tremolo	*	*tremolo	*	*	*	*	*	*	*	*	*	*	*	*	*	*	*
!	!	!	!	!	!	!	!	!	!	!	!	!	!	!	!	!LO:N:vis=0	!LO:N:vis=0	!LO:TX:t=P:problem:brakujący takt	!
8E#X\L	.	8e#X\L	.	8cc#\L	.	8b\	.	2.E#X\	no-	2.G#X/	no-	2.b\	no-	2.cc#\	no-	1.r	1.r	2.ryy	2.cc#\
8E#X\	.	8e#X\	.	8cc#\	.	4bb\	.	.	.	.	.	.	.	.	.	.	.	.	.
8E#X\	.	8e#X\	.	8cc#\	.	.	.	.	.	.	.	.	.	.	.	.	.	.	.
8E#X\	.	8e#X\	.	8cc#\	.	4bb\	.	.	.	.	.	.	.	.	.	.	.	.	.
8E#X\	.	8e#X\	.	8cc#\	.	.	.	.	.	.	.	.	.	.	.	.	.	.	.
8E#X\J	.	8e#X\J	.	8cc#\J	.	8bb\	.	.	.	.	.	.	.	.	.	.	.	.	.
=24	=24	=24	=24	=24	=24	=24	=24	=24	=24	=24	=24	=24	=24	=24	=24	=24	=24	=24	=24
8F#\L	.	8f#\L	.	4dd\	.	4bb\	.	2.F#\	.	4F#/	.	4b\	.	4dd\	.	.	.	4b/	4dd\
8F#\	.	8f#\	.	.	.	.	.	.	.	.	.	.	.	.	.	.	.	.	.
!	!	!	!	!	!	!	!	!	!	!	!	!	!	!	!	!	!	!LO:TX:a:t=Solo:problem:zapisane ołówkiem	!
8F#\	.	8f#\	.	8cc#\L	.	8aa#X\L	.	.	.	2f#\	.	8a#X\L	.	8cc#\L	.	.	.	8a#X/L	8cc#\L
!	!	!	!	!	!	!	!	!	!	!	!	!	!	!	!	!	!	!LO:SIC:v:s=8g#	!
8F#\	.	8f#\	.	8b\J	.	8gg#X\J	.	.	.	.	.	8g#X\J	.	8b\J	.	.	.	8g/J	8b\J
!	!	!	!	!	!	!	!	!	!	!	!	!	!	!LO:LB:g=original	!	!	!	!	!
!	!	!	!	!	!	!	!	!	!	!	!	!	!	!	!	!	!	!	!LO:TX:a:t=Solo:problem:zapisane ołówkiem)
8F#\	.	8f#\	.	4cc#\	.	4aa#\	.	.	.	.	.	4a#X\	.	4cc#\	.	.	.	4a#/	4cc#\
8F#\J	.	8f#\J	.	.	.	.	.	.	.	.	.	.	.	.	.	.	.	.	.
!	!	!	!	!	!	!LO:LB:g=original	!	!	!	!	!	!	!	!	!	!	!LO:LB:g=original	!	!
=25	=25	=25	=25	=25	=25	=25	=25	=25	=25	=25	=25	=25	=25	=25	=25	=25	=25	=25	=25
4BB/	.	4B/	.	4dd\	.	4bb\	.	4BB/	-bis	4f#\	-bis	4b\	-bis	4dd\	-bis	4r	4r	4b\	4dd\
4r	.	4r	.	4r	.	4r	.	4r	.	4r	.	4r	.	4r	.	4g\	4b\	4gg\	4bb\
4r	.	4r	.	4r	.	4r	.	4r	.	4r	.	4r	.	4r	.	8f#\L	8a\L	8ff#\L	8aa\L
.	.	.	.	.	.	.	.	.	.	.	.	.	.	.	.	8e\J	8g\J	8ee\J	8gg\J
!	!	!LO:LB:g=original	!	!	!	!	!	!	!	!	!	!	!	!	!	!	!	!	!
=26	=26	=26	=26	=26	=26	=26	=26	=26	=26	=26	=26	=26	=26	=26	=26	=26	=26	=26	=26
*	*	*	*	*	*	*tremolo	*	*	*	*	*	*	*	*	*	*	*	*	*
!	!	!	!	!	!LO:DY:a	!	!LO:DY:b	!LO:N:vis=00	!	!LO:N:vis=00	!	!LO:N:vis=00	!	!LO:N:vis=00	!	!	!	!	!
4D\	.	8F#/L	.	2.A/	fp	8d/L	fp	0.r	.	0.r	.	0.r	.	0.r	.	4d\	4f#\	4dd\	2.dd\
.	.	8F#/	.	.	.	8d/	.	.	.	.	.	.	.	.	.	.	.	.	.
4r	.	8F#/	.	.	.	8d/	.	.	.	.	.	.	.	.	.	2D/	4r	2f#/	.
!	!	!	!LO:DY:b	!	!	!	!	!	!	!	!	!	!	!	!	!	!	!	!
.	.	8F#/	p	.	.	8d/	.	.	.	.	.	.	.	.	.	.	.	.	.
4r	.	8F#/	.	.	.	8d/	.	.	.	.	.	.	.	.	.	.	4d\	.	.
.	.	8F#/J	.	.	.	8d/J	.	.	.	.	.	.	.	.	.	.	.	.	.
=27	=27	=27	=27	=27	=27	=27	=27	=27	=27	=27	=27	=27	=27	=27	=27	=27	=27	=27	=27
!	!	!	!	!	!LO:DY:a	!	!LO:DY:a	!	!	!	!	!	!	!	!	!	!	!	!
4D\	.	8F#/L	.	2.A/	fp	8cn/L	fp	.	.	.	.	.	.	.	.	2.D/	2.d\	2.a/	2.ccn\
.	.	8F#/	.	.	.	8cn/	.	.	.	.	.	.	.	.	.	.	.	.	.
4r	.	8F#/	.	.	.	8cn/	.	.	.	.	.	.	.	.	.	.	.	.	.
.	.	8F#/	.	.	.	8cn/	.	.	.	.	.	.	.	.	.	.	.	.	.
4r	.	8F#/	.	.	.	8cn/	.	.	.	.	.	.	.	.	.	.	.	.	.
.	.	8F#/J	.	.	.	8cn/J	.	.	.	.	.	.	.	.	.	.	.	.	.
!	!	!	!	!	!	!	!	!	!	!	!	!	!	!	!	!	!	!	!LO:LB:g=original
=28	=28	=28	=28	=28	=28	=28	=28	=28	=28	=28	=28	=28	=28	=28	=28	=28	=28	=28	=28
!	!	!	!	!	!LO:DY:a	!	!LO:DY:a	!	!	!	!	!	!	!	!	!	!	!	!
4D\	.	8G/L	.	2.G/	fp	8B/L	fp	.	.	.	.	.	.	.	.	2.D/	2.d\	2.g/	2.b\
.	.	8G/	.	.	.	8B/	.	.	.	.	.	.	.	.	.	.	.	.	.
4r	.	8G/	.	.	.	8B/	.	.	.	.	.	.	.	.	.	.	.	.	.
.	.	8G/	.	.	.	8B/	.	.	.	.	.	.	.	.	.	.	.	.	.
4r	.	8G/	.	.	.	8B/	.	.	.	.	.	.	.	.	.	.	.	.	.
.	.	8G/J	.	.	.	8B/J	.	.	.	.	.	.	.	.	.	.	.	.	.
=29	=29	=29	=29	=29	=29	=29	=29	=29	=29	=29	=29	=29	=29	=29	=29	=29	=29	=29	=29
!	!	!	!	!	!LO:DY:a	!	!LO:DY:a	!	!	!	!	!	!	!	!	!	!	!	!
4D\	.	8E/L	.	2.G/	fp	8c#X/L	fp	.	.	.	.	.	.	.	.	2.D/	2.d\	2.g/	2.cc#X\
.	.	8E/	.	.	.	8c#X/	.	.	.	.	.	.	.	.	.	.	.	.	.
4r	.	8E/	.	.	.	8c#X/	.	.	.	.	.	.	.	.	.	.	.	.	.
.	.	8E/	.	.	.	8c#X/	.	.	.	.	.	.	.	.	.	.	.	.	.
4r	.	8E/	.	.	.	8c#X/	.	.	.	.	.	.	.	.	.	.	.	.	.
.	.	8E/J	.	.	.	8c#X/J	.	.	.	.	.	.	.	.	.	.	.	.	.
!LO:LB:g=original	!	!	!	!	!	!	!	!	!	!	!	!	!	!	!	!	!	!LO:LB:g=original	!
=30	=30	=30	=30	=30	=30	=30	=30	=30	=30	=30	=30	=30	=30	=30	=30	=30	=30	=30	=30
!	!	!	!	!	!LO:DY:a	!	!	!LO:N:vis=00	!	!LO:N:vis=00	!	!	!	!	!	!	!	!	!LO:TX:t=P:problem:nad nutą dopisane czerwoną kredką: g
4D\	.	8F#/L	.	2.A/	fp	8d/L	.	0.r	.	0.r	.	2f#\	a-	2dd\	a-	2.D/	2.d\	2.f#/	2.cc#\
.	.	8F#/	.	.	.	8d/	.	.	.	.	.	.	.	.	.	.	.	.	.
4r	.	8F#/	.	.	.	8d/	.	.	.	.	.	.	.	.	.	.	.	.	.
.	.	8F#/	.	.	.	8d/	.	.	.	.	.	.	.	.	.	.	.	.	.
4r	.	8F#/	.	.	.	8d/	.	.	.	.	.	4f#\	-gnus	4dd\	-gnus	.	.	.	.
.	.	8F#/J	.	.	.	8d/J	.	.	.	.	.	.	.	.	.	.	.	.	.
!	!	!	!	!LO:LB:g=original	!	!	!	!	!	!	!	!	!	!	!	!	!	!	!
=31	=31	=31	=31	=31	=31	=31	=31	=31	=31	=31	=31	=31	=31	=31	=31	=31	=31	=31	=31
!	!	!	!	!	!LO:DY:a	!	!	!	!	!	!	!	!	!	!	!	!	!	!
4D\	.	8F#/L	.	2.A/	fp	8cn/L	.	.	.	.	.	4a\	De-	4ccn\	De-	2.D/	2.d\	2.a/	2.ccn\
.	.	8F#/	.	.	.	8cn/	.	.	.	.	.	.	.	.	.	.	.	.	.
4r	.	8F#/	.	.	.	8cn/	.	.	.	.	.	4a\	-i	4cc\	-i	.	.	.	.
.	.	8F#/	.	.	.	8cn/	.	.	.	.	.	.	.	.	.	.	.	.	.
4r	.	8F#/	.	.	.	8cn/	.	.	.	.	.	4a\	qui	4cc\	qui	.	.	.	.
.	.	8F#/J	.	.	.	8cn/J	.	.	.	.	.	.	.	.	.	.	.	.	.
=32	=32	=32	=32	=32	=32	=32	=32	=32	=32	=32	=32	=32	=32	=32	=32	=32	=32	=32	=32
!	!	!	!	!	!LO:DY:a	!	!	!	!	!	!	!	!	!	!	!	!	!	!
4D\	.	8G/L	.	2.G/	fp	8B/L	.	.	.	.	.	4g\	tol-	4b\	tol-	2.D/	2.d\	2.g/	2.b\
.	.	8G/	.	.	.	8B/	.	.	.	.	.	.	.	.	.	.	.	.	.
4r	.	8G/	.	.	.	8B/	.	.	.	.	.	4g\	-lis	4b\	-lis	.	.	.	.
.	.	8G/	.	.	.	8B/	.	.	.	.	.	.	.	.	.	.	.	.	.
4r	.	8G/	.	.	.	8B/	.	.	.	.	.	4g\	pec-	4b\	pec-	.	.	.	.
.	.	8G/J	.	.	.	8B/J	.	.	.	.	.	.	.	.	.	.	.	.	.
=33	=33	=33	=33	=33	=33	=33	=33	=33	=33	=33	=33	=33	=33	=33	=33	=33	=33	=33	=33
!	!	!	!	!	!LO:DY:a	!	!	!	!	!	!	!	!	!	!	!	!	!	!LO:TX:t=P:problem:kasownik dopisany ołówkiem
4D\	.	8F#/L	.	2.A/	fp	8cn/L	.	.	.	.	.	2a\	-ca-	2cc#\	-ca-	2.D/	2.d\	2.a/	2.ccn\
.	.	8F#/	.	.	.	8cn/	.	.	.	.	.	.	.	.	.	.	.	.	.
4r	.	8F#/	.	.	.	8cn/	.	.	.	.	.	.	.	.	.	.	.	.	.
.	.	8F#/	.	.	.	8cn/	.	.	.	.	.	.	.	.	.	.	.	.	.
4r	.	8F#/	.	.	.	8cn/	.	.	.	.	.	4a\	-ta	4cc#\	-ta	.	.	.	.
.	.	8F#/J	.	.	.	8cn/J	.	.	.	.	.	.	.	.	.	.	.	.	.
=34	=34	=34	=34	=34	=34	=34	=34	=34	=34	=34	=34	=34	=34	=34	=34	=34	=34	=34	=34
!	!	!	!	!	!LO:DY:a	!	!	!	!	!	!	!	!	!	!	!	!	!	!
4G\	.	8D/L	.	2.G/	fp	8B/L	.	2.r	.	2.r	.	2g\	mun-	2b\	mun-	2.D/	2.d\	2.g/	2.b\
.	.	8D/	.	.	.	8B/	.	.	.	.	.	.	.	.	.	.	.	.	.
4r	.	8D/	.	.	.	8B/	.	.	.	.	.	.	.	.	.	.	.	.	.
.	.	8D/	.	.	.	8B/	.	.	.	.	.	.	.	.	.	.	.	.	.
4r	.	8D/	.	.	.	8B/	.	.	.	.	.	4g\	-di	4b\	-di	.	.	.	.
.	.	8D/J	.	.	.	8B/J	.	.	.	.	.	.	.	.	.	.	.	.	.
!	!	!	!	!	!	!	!	!LO:PB:g=original	!	!	!	!LO:LB:g=original	!	!	!	!	!	!	!
=35	=35	=35	=35	=35	=35	=35	=35	=35	=35	=35	=35	=35	=35	=35	=35	=35	=35	=35	=35
!	!	!	!	!	!	!	!	!	!	!	!	!LO:N:vis=00	!	!LO:N:vis=00	!	!LO:N:vis=0	!LO:N:vis=0	!	!
4D#X\	.	8B/L	.	8f#/L	.	8a/L	.	2F#\	mi-	2A\	mi-	0.r	.	0.r	.	1.r	1.r	2.f#/	2.a/
.	.	8B/	.	8f#/	.	8a/	.	.	.	.	.	.	.	.	.	.	.	.	.
4r	.	8B/	.	8f#/	.	8a/	.	.	.	.	.	.	.	.	.	.	.	.	.
.	.	8B/	.	8f#/	.	8a/	.	.	.	.	.	.	.	.	.	.	.	.	.
4r	.	8B/	.	8f#/	.	8a/	.	4F#\	-se-	4A\	-se-	.	.	.	.	.	.	.	.
.	.	8B/J	.	8f#/J	.	8a/J	.	.	.	.	.	.	.	.	.	.	.	.	.
=36	=36	=36	=36	=36	=36	=36	=36	=36	=36	=36	=36	=36	=36	=36	=36	=36	=36	=36	=36
!	!	!	!	!LO:TX:t=P:problem:nuta ołówkiem poprawiona na e	!	!	!	!	!	!	!	!	!	!	!	!	!	!LO:TX:b:t=P:problem:pod nutą dopisane czerwoną kredką: e	!
4E\	.	8B/L	.	8f#/L	.	8g/L	.	2E\	-re-	2G/	-re-	.	.	.	.	.	.	2f#/	2.g/
.	.	8B/	.	8f#/	.	8g/	.	.	.	.	.	.	.	.	.	.	.	.	.
4r	.	8B/	.	8f#/	.	8g/	.	.	.	.	.	.	.	.	.	.	.	.	.
.	.	8B/	.	8f#/	.	8g/	.	.	.	.	.	.	.	.	.	.	.	.	.
4r	.	8B/	.	8f#/	.	8g/	.	4E\	-re	4G/	-re	.	.	.	.	.	.	4b/	.
.	.	8B/J	.	8f#/J	.	8g/J	.	.	.	.	.	.	.	.	.	.	.	.	.
=37	=37	=37	=37	=37	=37	=37	=37	=37	=37	=37	=37	=37	=37	=37	=37	=37	=37	=37	=37
4E#X\	.	8c#\L	.	8g#X/L	.	8b/L	.	2.G#X\	no-	2.B\	no-	.	.	.	.	2.r	2.r	2.g#X/	2.b\
.	.	8c#\	.	8g#X/	.	8b/	.	.	.	.	.	.	.	.	.	.	.	.	.
4r	.	8c#\	.	8g#X/	.	8b/	.	.	.	.	.	.	.	.	.	.	.	.	.
.	.	8c#\	.	8g#X/	.	8b/	.	.	.	.	.	.	.	.	.	.	.	.	.
4r	.	8c#\	.	8g#X/	.	8b/	.	.	.	.	.	.	.	.	.	.	.	.	.
.	.	8c#\J	.	8g#X/J	.	8b/J	.	.	.	.	.	.	.	.	.	.	.	.	.
*	*	*Xtremolo	*	*	*	*	*	*	*	*	*	*	*	*	*	*	*	*	*
!	!	!	!	!	!	!	!	!	!	!	!	!	!	!	!	!LO:PB:g=original	!LO:PB:g=original	!	!
=38	=38	=38	=38	=38	=38	=38	=38	=38	=38	=38	=38	=38	=38	=38	=38	=38	=38	=38	=38
4F#\	.	4B\	.	4f#/	.	4a#X/	.	4F#\	-bis	4A#X\	-bis	.	.	.	.	4r	4r	4f#/	4a#X/
4r	.	4r	.	4r	.	4r	.	4r	.	4r	.	.	.	.	.	4F#/	4f#\	4r	4ff#\
4r	.	4r	.	4r	.	4r	.	4r	.	4r	.	.	.	.	.	4F#/	4f#\	4r	4ff#\
*	*	*	*	*	*	*Xtremolo	*	*	*	*	*	*	*	*	*	*	*	*	*
!	!	!LO:LB:g=original	!	!	!	!LO:LB:g=original	!	!	!	!LO:LB:g=original	!	!	!	!	!	!	!	!	!
=39	=39	=39	=39	=39	=39	=39	=39	=39	=39	=39	=39	=39	=39	=39	=39	=39	=39	=39	=39
4F#\	.	(>2c#\	.	2A#X/	.	8r	.	2F#\	a-	2A#X\	a-	2cc#\	a-	2ee\	a-	2.F#/	2.f#\	2a#X/	2.ff#\
.	.	.	.	.	.	8ee\L	.	.	.	.	.	.	.	.	.	.	.	.	.
4r	.	.	.	.	.	8ee\	.	.	.	.	.	.	.	.	.	.	.	.	.
.	.	.	.	.	.	8ff#\J	.	.	.	.	.	.	.	.	.	.	.	.	.
.	.	.	.	.	.	16qqee/	.	.	.	.	.	.	.	.	.	.	.	.	.
4r	.	4d\)	.	4B/	.	8dd\L	.	4F#\	-gnus	4A#\	-gnus	4f#\	-gnus	4dd\	-gnus	.	.	4b/	.
.	.	.	.	.	.	16cc#\L	.	.	.	.	.	.	.	.	.	.	.	.	.
.	.	.	.	.	.	16b\JJ	.	.	.	.	.	.	.	.	.	.	.	.	.
*	*	*	*	*Xtremolo	*	*	*	*	*	*	*	*	*	*	*	*	*	*	*
=40	=40	=40	=40	=40	=40	=40	=40	=40	=40	=40	=40	=40	=40	=40	=40	=40	=40	=40	=40
!	!	!	!	!	!	!	!	!	!	!	!	!	!	!	!	!	!	!LO:SIC:v:s=2a#	!
4F#\	.	2c#\	.	8r	.	2a#X/	.	4F#\	De-	4e\	De-	4cc#\	De-	4a#X\	De-	2.F#/	2.f#\	2a/	2.ff#\
.	.	.	.	8e/L	.	.	.	.	.	.	.	.	.	.	.	.	.	.	.
4r	.	.	.	8e/	.	.	.	4F#\	-i	4e\	-i	4cc#\	-i	4b\	-i	.	.	.	.
.	.	.	.	8f#/J	.	.	.	.	.	.	.	.	.	.	.	.	.	.	.
4r	.	4d\	.	8d/L	.	4b/	.	4F#\	qui	4d\	qui	4f#\	qui	4cc#\	qui	.	.	4b/	.
.	.	.	.	16c#/L	.	.	.	.	.	.	.	.	.	.	.	.	.	.	.
.	.	.	.	16B/JJ	.	.	.	.	.	.	.	.	.	.	.	.	.	.	.
!	!	!	!	!LO:LB:g=original	!	!	!	!	!	!	!	!	!	!LO:LB:g=original	!	!	!	!	!
=41	=41	=41	=41	=41	=41	=41	=41	=41	=41	=41	=41	=41	=41	=41	=41	=41	=41	=41	=41
!	!	!	!	!	!	!	!	!	!	!	!	!	!	!	!	!	!	!LO:SIC:v:s=2a#	!
4F#\	.	2c#\	.	2A#X/	.	8r	.	4F#\	tol-	4A\	tol-	4cc#\	tol-	4ee\	tol-	2.F#/	2.f#\	2a/	2.ff#\
.	.	.	.	.	.	8ee\L	.	.	.	.	.	.	.	.	.	.	.	.	.
4r	.	.	.	.	.	8ee\	.	4F#\	-lis	4A\	-lis	4cc#\	-lis	4ee\	-lis	.	.	.	.
.	.	.	.	.	.	8ff#\J	.	.	.	.	.	.	.	.	.	.	.	.	.
.	.	.	.	.	.	16qqee/	.	.	.	.	.	.	.	.	.	.	.	.	.
4r	.	4d\	.	4B/	.	8dd\L	.	4F#\	pec-	4B\	pec-	4f#\	pec-	4dd\	pec-	.	.	4b/	.
.	.	.	.	.	.	16cc#\L	.	.	.	.	.	.	.	.	.	.	.	.	.
.	.	.	.	.	.	16b\JJ	.	.	.	.	.	.	.	.	.	.	.	.	.
!LO:LB:g=original	!	!	!	!	!	!	!	!	!	!	!	!	!	!	!	!	!	!	!
=42	=42	=42	=42	=42	=42	=42	=42	=42	=42	=42	=42	=42	=42	=42	=42	=42	=42	=42	=42
!	!	!	!	!	!	!	!	!	!	!	!	!	!	!	!	!	!	!LO:SIC:v:s=2a#	!
4F#\	.	2c#\	.	8r	.	2a#X/	.	2F#\	-ca-	2e\	-ca-	2cc#\	-ca-	2a#X\	-ca-	2.F#/	2.f#\	2a/	2.ff#\
.	.	.	.	8e/L	.	.	.	.	.	.	.	.	.	.	.	.	.	.	.
4r	.	.	.	8e/	.	.	.	.	.	.	.	.	.	.	.	.	.	.	.
.	.	.	.	8f#/J	.	.	.	.	.	.	.	.	.	.	.	.	.	.	.
.	.	.	.	16qqe/	.	.	.	.	.	.	.	.	.	.	.	.	.	.	.
4r	.	4d\	.	8d/L	.	4b/	.	4F#\	-ta	4d\	-ta	4f#\	-ta	4b\	-ta	.	.	4b/	.
.	.	.	.	16c#/L	.	.	.	.	.	.	.	.	.	.	.	.	.	.	.
.	.	.	.	16B/JJ	.	.	.	.	.	.	.	.	.	.	.	.	.	.	.
!	!	!	!	!	!	!	!	!LO:LB:g=original	!	!	!	!	!	!	!	!	!	!	!
=43	=43	=43	=43	=43	=43	=43	=43	=43	=43	=43	=43	=43	=43	=43	=43	=43	=43	=43	=43
*	*	*	*	*tremolo	*	*tremolo	*	*	*	*	*	*	*	*	*	*	*	*	*
!	!	!	!	!	!	!	!	!	!	!	!	!	!	!	!	!LO:N:vis=0	!LO:N:vis=0	!	!
8E#X\L	.	4g#X\	.	8b\L	.	8dd\L	.	2.E\	mun-	2.B\	mun-	2.g#X\	mun-	2.dd\	mun-	1.r	1.r	2.b/	2.dd\
8E#X\	.	.	.	8b\	.	8dd\	.	.	.	.	.	.	.	.	.	.	.	.	.
8E#X\	.	4g#\	.	8b\	.	8dd\	.	.	.	.	.	.	.	.	.	.	.	.	.
8E#X\	.	.	.	8b\	.	8dd\	.	.	.	.	.	.	.	.	.	.	.	.	.
8E#X\	.	4g#\	.	8b\	.	8dd\	.	.	.	.	.	.	.	.	.	.	.	.	.
8E#X\J	.	.	.	8b\J	.	8dd\J	.	.	.	.	.	.	.	.	.	.	.	.	.
*	*	*	*	*	*	*Xtremolo	*	*	*	*	*	*	*	*	*	*	*	*	*
*	*	*	*	*Xtremolo	*	*	*	*	*	*	*	*	*	*	*	*	*	*	*
*Xtremolo	*	*	*	*	*	*	*	*	*	*	*	*	*	*	*	*	*	*	*
!	!	!	!	!	!	!	!	!	!	!	!	!	!	!	!	!	!	!	!LO:LB:g=original
=44	=44	=44	=44	=44	=44	=44	=44	=44	=44	=44	=44	=44	=44	=44	=44	=44	=44	=44	=44
4F#\	.	4f#\	.	4b/	.	4dd\	.	2.F#\	.	4B\	.	2f#\	.	4dd\	.	.	.	4b/	4dd\
4r	.	4r	.	4a#X/	.	4cc#X\	.	.	.	4A#X\	.	.	.	4cc#\	.	.	.	4a#X/	4cc#\
4r	.	4r	.	4g#X/	.	4ee#X\	.	.	.	4B\	.	4g#X\	.	4ee#X\	.	.	.	4g#X/	4ee#X\
=45	=45	=45	=45	=45	=45	=45	=45	=45	=45	=45	=45	=45	=45	=45	=45	=45	=45	=45	=45
!	!	!	!	!LO:SIC:v:s=8a#	!	!	!	!	!	!LO:SIC:v:s=4a#	!	!	!	!	!	!	!	!LO:SIC:v:s=4a#	!
4F#\	.	4f#\	.	8a/L	.	8ff#\L	.	4F#\	-di	4A\	-di	4cc#\	-di	4ff#\	-di	4F#/	4f#\	4a/	4ff#\
.	.	.	.	8b/J	.	8dd\J	.	.	.	.	.	.	.	.	.	.	.	.	.
!	!	!	!	!LO:SIC:v:s=4a#	!	!	!	!	!	!	!	!	!	!	!	!	!	!	!
4r	.	4r	.	4a/	.	4cc#\	.	4r	.	4r	.	4r	.	4r	.	4r	4r	4r	4r
!	!	!	!	!LO:SIC:v:s=4g#	!	!	!	!	!	!	!	!	!	!	!	!	!	!	!
4r	.	4r	.	4g/	.	4ee#X\	.	4r	.	4r	.	4r	.	4r	.	4r	4r	4r	4r
!	!	!	!	!	!	!	!	!	!	!	!	!	!	!	!	!	!	!LO:LB:g=original	!
=46	=46	=46	=46	=46	=46	=46	=46	=46	=46	=46	=46	=46	=46	=46	=46	=46	=46	=46	=46
!	!	!	!	!	!	!	!	!LO:N:vis=0	!	!LO:N:vis=0	!	!LO:N:vis=0	!	!LO:N:vis=0	!	!	!	!	!
4F#\	.	4f#\	.	4.a#X/	.	4.ff#\	.	1.r	.	1.r	.	1.r	.	1.r	.	4F#/	4f#\	4r	4r
4FF#/	.	4r	.	.	.	.	.	.	.	.	.	.	.	.	.	4r	4r	8r	8r
!	!	!	!	!	!LO:DY:b:rj	!	!	!	!	!	!	!	!	!	!	!	!	!	!
.	.	.	.	8a#/L	p	8cc#\L	.	.	.	.	.	.	.	.	.	.	.	8a#X/L	8cc#\L
4r	.	4r	.	8g#X/	.	8b\	.	.	.	.	.	.	.	.	.	4r	4r	8g#X/	8b\
.	.	.	.	8f#/J	.	8a#X\J	.	.	.	.	.	.	.	.	.	.	.	8f#/J	8a#X\J
=47	=47	=47	=47	=47	=47	=47	=47	=47	=47	=47	=47	=47	=47	=47	=47	=47	=47	=47	=47
4F#\	.	4f#\	.	4.b/	.	4.dd\	.	.	.	.	.	.	.	.	.	4F#/	4f#\	4r	4r
4FF#/	.	4r	.	.	.	.	.	.	.	.	.	.	.	.	.	4r	4r	8r	8r
.	.	.	.	8b/L	.	8dd\L	.	.	.	.	.	.	.	.	.	.	.	8b/L	8dd\L
!	!	!	!	!	!	!	!	!	!	!	!	!	!	!	!	!	!	!LO:SIC:v:s=8a#	!
4r	.	4r	.	8a#X/	.	8cc#\	.	.	.	.	.	.	.	.	.	4r	4r	8a/	8cc#\
!	!	!	!	!	!	!	!	!	!	!	!	!	!	!	!	!	!	!LO:SIC:v:s=8g#	!
.	.	.	.	8g#X/J	.	8b\J	.	.	.	.	.	.	.	.	.	.	.	8g/J	8b\J
=48	=48	=48	=48	=48	=48	=48	=48	=48	=48	=48	=48	=48	=48	=48	=48	=48	=48	=48	=48
!	!	!	!	!	!	!	!	!	!	!LO:TX:t=P:problem:brakujący takt	!	!	!	!	!	!	!	!	!
2.F#\	.	2f#;>\	.	2f#;>/	.	2.a#X/	.	2.r	.	2.ryy	.	2.r	.	2.r	.	2.F#/	2.f#\	2.f#/	2.a#X/
.	.	4r	.	4r	.	.	.	.	.	.	.	.	.	.	.	.	.	.	.
==	==	==	==	==	==	==	==	==	==	==	==	==	==	==	==	==	==	==	==
*-	*-	*-	*-	*-	*-	*-	*-	*-	*-	*-	*-	*-	*-	*-	*-	*-	*-	*-	*-
!!!system-decoration: [g1][g2][g3][g4][s12]
!!!RDF**kern: > = above
!!!RDF**kern: < = below
!!!EED: Mateusz Mrugas
!!!EST: 2021-01-19
!!!ENC: Kamil Watkowski
!!!END: 2021-01-16
!!!RDF**kern: | = vertical stroke
